packages/assets/static/images/icons/escalator-up.svg

<svg width="24" height="24" viewBox="0 0 24 24" xmlns="http://www.w3.org/2000/svg">
<path d="M20.9999 3.375H15.7499C15.5945 3.37496 15.4409 3.4071 15.2986 3.46938C15.1562 3.53166 15.0284 3.62274 14.923 3.73688L6.25769 13.125H2.99988C2.5026 13.125 2.02568 13.3225 1.67405 13.6742C1.32242 14.0258 1.12488 14.5027 1.12488 15V18.75C1.12488 19.2473 1.32242 19.7242 1.67405 20.0758C2.02568 20.4275 2.5026 20.625 2.99988 20.625H8.24988C8.40522 20.625 8.55889 20.5929 8.7012 20.5306C8.84351 20.4683 8.97138 20.3773 9.07675 20.2631L17.7421 10.875H20.9999C21.4972 10.875 21.9741 10.6775 22.3257 10.3258C22.6773 9.97419 22.8749 9.49728 22.8749 9V5.25C22.8749 4.75272 22.6773 4.27581 22.3257 3.92417C21.9741 3.57254 21.4972 3.375 20.9999 3.375ZM20.6249 8.625H17.2499C17.0945 8.62496 16.9409 8.6571 16.7986 8.71938C16.6562 8.78166 16.5284 8.87274 16.423 8.98688L7.75769 18.375H3.37488V15.375H6.74988C6.90522 15.375 7.05889 15.3429 7.2012 15.2806C7.34351 15.2183 7.47138 15.1273 7.57675 15.0131L16.2421 5.625H20.6249V8.625ZM21.7958 15.7041C22.0072 15.9154 22.1259 16.2021 22.1259 16.5009C22.1259 16.7998 22.0072 17.0865 21.7958 17.2978C21.5845 17.5092 21.2978 17.6279 20.9989 17.6279C20.7001 17.6279 20.4134 17.5092 20.2021 17.2978L19.8749 16.9688V19.5C19.8749 19.7984 19.7564 20.0845 19.5454 20.2955C19.3344 20.5065 19.0482 20.625 18.7499 20.625C18.4515 20.625 18.1654 20.5065 17.9544 20.2955C17.7434 20.0845 17.6249 19.7984 17.6249 19.5V16.9688L17.2958 17.2987C17.0845 17.5101 16.7978 17.6288 16.4989 17.6288C16.2001 17.6288 15.9134 17.5101 15.7021 17.2987C15.4907 17.0874 15.372 16.8008 15.372 16.5019C15.372 16.203 15.4907 15.9163 15.7021 15.705L17.9521 13.455C18.0566 13.3501 18.1808 13.2669 18.3175 13.2101C18.4543 13.1533 18.6009 13.1241 18.7489 13.1241C18.897 13.1241 19.0436 13.1533 19.1804 13.2101C19.3171 13.2669 19.4413 13.3501 19.5458 13.455L21.7958 15.7041Z"/>
</svg>

<svg viewBox="0 0 24 24" xmlns="http://www.w3.org/2000/svg" aria-hidden="true" fill="currentColor" height="24px" width="24px"><path d="M21 3.375h-5.25a1.13 1.13 0 0 0-.827.362l-8.665 9.388H3A1.875 1.875 0 0 0 1.125 15v3.75A1.875 1.875 0 0 0 3 20.625h5.25a1.13 1.13 0 0 0 .827-.362l8.665-9.388H21A1.875 1.875 0 0 0 22.875 9V5.25A1.875 1.875 0 0 0 21 3.375m-.375 5.25H17.25a1.13 1.13 0 0 0-.827.362l-8.665 9.388H3.375v-3H6.75a1.13 1.13 0 0 0 .827-.362l8.665-9.388h4.383zm1.17 7.08a1.127 1.127 0 1 1-1.593 1.593l-.327-.33V19.5a1.125 1.125 0 1 1-2.25 0v-2.531l-.33.33a1.127 1.127 0 1 1-1.593-1.594l2.25-2.25a1.125 1.125 0 0 1 1.594 0z"/></svg>
